src/assets/icons/youtube.svg

<?xml version="1.0" encoding="UTF-8"?>
<svg width="36px" height="36px" viewBox="0 0 36 36" version="1.1" xmlns="http://www.w3.org/2000/svg" xmlns:xlink="http://www.w3.org/1999/xlink">
    <!-- Generator: Sketch 53.2 (72643) - https://sketchapp.com -->
    <title>youtube outlined</title>
    <desc>Created with Sketch.</desc>
    <g id="youtube-outlined" stroke="none" stroke-width="1" fill="none" fill-rule="evenodd">
        <circle id="Oval" stroke="#FFFFFF" cx="18" cy="18" r="17.5"></circle>
        <path d="M27.5820806,13.2758712 C27.3520638,12.3800379 26.6743546,11.6745076 25.8138699,11.4350758 C24.2541794,11 18,11 18,11 C18,11 11.7458572,11 10.1861301,11.4350758 C9.32564535,11.6745455 8.64793622,12.3800379 8.41791941,13.2758712 C8,14.8996212 8,18.2874242 8,18.2874242 C8,18.2874242 8,21.6752273 8.41791941,23.2989773 C8.64793622,24.1948106 9.32564535,24.870947 10.1861301,25.1103788 C11.7458572,25.5454545 18,25.5454545 18,25.5454545 C18,25.5454545 24.2541428,25.5454545 25.8138699,25.1103788 C26.6743546,24.870947 27.3520638,24.1948106 27.5820806,23.2989773 C28,21.6752273 28,18.2874242 28,18.2874242 C28,18.2874242 28,14.8996212 27.5820806,13.2758712 Z M16.1818182,21.3127131 L16.1818182,15.5454545 L21.4090701,18.4291548 L16.1818182,21.3127131 Z" id="Shape" fill="#FFFFFF" fill-rule="nonzero"></path>
    </g>
</svg>

<svg width="36" height="36" xmlns="http://www.w3.org/2000/svg"><g fill="none" fill-rule="evenodd"><circle stroke="#FFF" cx="18" cy="18" r="17.5"/><path d="M27.582 13.276c-.23-.896-.908-1.601-1.768-1.84C24.254 11 18 11 18 11s-6.254 0-7.814.435c-.86.24-1.538.945-1.768 1.84C8 14.9 8 18.288 8 18.288s0 3.388.418 5.012c.23.896.908 1.572 1.768 1.811 1.56.435 7.814.435 7.814.435s6.254 0 7.814-.435a2.518 2.518 0 0 0 1.768-1.811C28 21.675 28 18.287 28 18.287s0-3.387-.418-5.011zm-11.4 8.037v-5.768l5.227 2.884-5.227 2.884z" fill="#FFF" fill-rule="nonzero"/></g></svg>
